X:1
T:Eddie Kelly's
M:C|
L:1/8
R:reel
D:Kevin and S\'eamus Glackin: Northern Lights
Z:Devin McCabe
K:DDor
_B|:AGEC D3C|A,D D/2D/2D A,DFD|EFFE F3G|Adfe d3_B|
!AGEC A,3B,|C3D EGcB|dfed cGAc|1_BGFE FDD_B:|2_BGFE FDDe|
!:fdd^c d3e|fAdf eAce|fdd^c defd|eggf ecce|
!fdd^c defd|eaaf gedg|edcB cGAc|1_BGFE FDDe:|2_BGFE FDD_B|

%  ABC2Win Version 2.1 8/25/2001
